X: 113
T: the Wedding Day
%%VWML:Thompsons1762-2277a-p57-0 
F:http://www.vwml.org/record/Thompsons1762/2277a/p57
Z: 2014 John Chambers <jc:trillian.mit.edu>
B: Thompson "Twenty four Country Dances for the Year 1762" p.57 #1
F: http://www.vwml.org/browse/browse-collections-dance-tune-books/browse-thompsons1762# 2014 -8-11
M: 6/8
L: 1/8
K: A
|:\
Aed cBA | BBB B2c | d2f ecA | G2A B3 | Aed cBA | BBB TB2c | d2e fga | gaf e3 :| |:\
ebagfe | fff Tf2g | a2g Tf2e | d2c TB3 | eba gfe | Tf2g a2f | edc BAG | AAA A3 :| 
%------------------------- 
%%begintext align
%% Sett 3 and turn .|. the same on the Mans side .|: cross
 %% over two Cu :|. lead to the top foot it and cast off :|: 
 %% lead thro' the bottom cast up and turn .|. lead thro' 
 %% the top cast off & turn .|: hands round 4 with the 3d 
 %% Cu :|. right and left at top :|:
%%endtext %-------------------------
T: the Jolly Night
%R: jig
Z: 2014 John Chambers <jc:trillian.mit.edu>
B: Thompson "Twenty four Country Dances for the Year 1762" p.57 #2
F: http://www.vwml.org/browse/browse-collections-dance-tune-books/browse-thompsons1762# 2014 -8-11
M: 6/8
L: 1/8
K: G
|:\
gdB GGG | AAA cBA | gdB GGG | cBA TB3 |\
gdB GGG | AAA cBA | Bdg fge | dAF D3 :|
|:\
dAF DDD | GFE FFF | FGA ABc | BdB A2d |\
gdB GGG | AAA cBA | Bdg edc | BcA G3 :|
%-------------------------
%%begintext align
%% Cast off one Cu: and Hands round 4 with the 3d Cu .|.
%% cast up and Hands round with the 2d Cu .|: cross over
%% two Cu :|. lead to the top and cast off :|:
%%endtext
%-------------------------
